packages/core/src/svgs/tokens/branded/STEEM.svg

<svg width="24" height="24" viewBox="0 0 24 24" fill="none" xmlns="http://www.w3.org/2000/svg">
<path d="M5.37526 4.16293C5.59702 4.20357 5.05251 5.64555 5.35494 7.29012C5.61734 8.70248 8.88615 14.1906 8.75497 16.0674C8.65396 17.2573 5.96041 20.0217 5.67829 19.8406C5.37526 19.7495 6.49506 17.8727 6.08175 16.3094C5.58715 14.4733 2.71191 9.75198 2.71191 7.66338C2.71191 6.14014 5.18369 4.06193 5.37526 4.16293ZM11.5291 2.00346C11.812 2.05454 11.1258 3.89011 11.5088 5.99908C11.842 7.80444 16.0188 14.796 15.847 17.1971C15.7158 18.7006 12.2856 22.2213 11.9228 21.989C11.5291 21.8881 12.9619 19.4871 12.4272 17.4896C11.8217 15.1595 8.13963 9.12625 8.13963 6.47277C8.13963 4.51589 11.2871 1.88272 11.539 2.00405L11.5291 2.00346ZM17.8951 4.16293C18.1168 4.20357 17.5723 5.64555 17.8747 7.29012C18.1371 8.70248 21.406 14.1906 21.2846 16.0674C21.1841 17.2573 18.49 20.0217 18.1974 19.8406C17.8956 19.7495 19.0148 17.8727 18.6014 16.3094C18.1168 14.4733 15.2317 9.75198 15.2317 7.66338C15.2317 6.14014 17.7034 4.06193 17.8951 4.16293Z" fill="#171FC9"/>
</svg>

<svg xmlns="http://www.w3.org/2000/svg" width="24" height="24" fill="none" viewBox="0 0 24 24">
    <path fill="#171FC9" d="M5.375 4.163c.222.04-.322 1.483-.02 3.127.262 1.412 3.531 6.9 3.4 8.777-.101 1.19-2.795 3.955-3.077 3.774-.303-.091.817-1.968.404-3.532-.495-1.836-3.37-6.557-3.37-8.646 0-1.523 2.472-3.601 2.663-3.5m6.154-2.16c.283.052-.403 1.887-.02 3.996.333 1.805 4.51 8.797 4.338 11.198-.131 1.504-3.561 5.024-3.924 4.792-.394-.1 1.039-2.502.504-4.5-.605-2.33-4.287-8.363-4.287-11.016 0-1.957 3.147-4.59 3.399-4.469zm6.366 2.16c.222.04-.323 1.483-.02 3.127.262 1.412 3.531 6.9 3.41 8.777-.1 1.19-2.795 3.955-3.088 3.774-.301-.091.818-1.968.404-3.532-.484-1.836-3.37-6.557-3.37-8.646 0-1.523 2.472-3.601 2.664-3.5"/>
</svg>
